X: 35434
T: Rover Through The Bog
R: waltz
M: 3/4
K: Dmajor
DEF GAB|DEF G3|DEF GAB|DEF G3|
BBB cAA|BBA GED|dcB AGA|BDE FG2|

